src/containers/site/SiteInvestmentScreen/asset/investment_feature_4.svg

<svg width="86" height="88" viewBox="0 0 86 88" fill="none" xmlns="http://www.w3.org/2000/svg">
<path d="M68.4828 57.3288C66.6915 57.3288 65.1338 58.3182 64.4328 59.7242L63.9915 56.8602C63.9915 54.5689 61.9925 52.6943 59.5002 52.6943C57.0338 52.6943 55.0088 54.5429 55.0088 56.8602C55.0088 56.4957 55.0088 55.1418 55.0088 54.7772C55.0088 52.486 53.0098 50.6114 50.5175 50.6114C48.0252 50.6114 46.0261 52.46 46.0261 54.7772V38.1659C46.0261 35.8746 44.0271 34 41.5348 34C39.0684 34 37.0434 35.8486 37.0434 38.1659V54.7772V56.8602V70.3472C31.3059 67.6393 28.7098 67.2228 25.828 67.2228C22.479 67.2228 19.104 68.4204 19.104 72.378L29.203 76.5699L36.2905 83.1311C39.6655 86.2555 44.2088 88 48.9857 88H63.9915C68.9502 88 72.9742 84.2768 72.9742 79.6943V61.4947C72.9482 59.2035 70.9492 57.3288 68.4828 57.3288Z" fill="url(#paint0_linear)"/>
<path fill-rule="evenodd" clip-rule="evenodd" d="M24.7646 43.9521C24.8169 43.8463 24.8692 43.7405 24.8954 43.6612V43.6347C24.9085 43.5818 24.9215 43.5355 24.9346 43.4893C24.9477 43.443 24.9608 43.3967 24.9739 43.3438V43.2909C25 43.1851 25 43.0793 25 43C25 42.9207 25 42.7884 24.9739 42.7091V42.6562C24.9477 42.5504 24.9215 42.4446 24.8954 42.3653V42.3388C24.8823 42.286 24.8627 42.2397 24.8431 42.1934C24.8235 42.1471 24.8039 42.1008 24.7908 42.0479V42.0215C24.7385 41.9157 24.6862 41.8364 24.6339 41.757C24.6339 41.757 24.6339 41.7306 24.6077 41.7306L14.1736 27.8463C13.7814 27.3174 13.1538 27 12.5 27C11.8462 27 11.2186 27.3174 10.8264 27.8463L0.392259 41.7306C0.392259 41.7306 0.392259 41.757 0.366109 41.757C0.356036 41.7723 0.344993 41.7886 0.333541 41.8054C0.285529 41.8761 0.230319 41.9574 0.209205 42.0215V42.0479C0.156904 42.1273 0.130753 42.2331 0.104602 42.3388V42.3653C0.0915271 42.4182 0.0784518 42.4645 0.0653763 42.5107C0.052301 42.557 0.0392258 42.6033 0.0261506 42.6562V42.7091C0 42.8149 0 42.9207 0 43C0 43.0793 0 43.2116 0.0261506 43.2909V43.3438C0.0523013 43.4496 0.0784519 43.5554 0.104602 43.6347V43.6612C0.117678 43.7141 0.137291 43.7603 0.156904 43.8066C0.176517 43.8529 0.19613 43.8992 0.209205 43.9521V43.9785C0.261506 44.0843 0.313807 44.1636 0.366109 44.243C0.366109 44.243 0.366109 44.2694 0.392259 44.2694L10.8264 58.1537C11.2186 58.6826 11.8462 59 12.5 59C13.1538 59 13.7814 58.6826 14.1736 58.1537L24.6077 44.2694C24.6077 44.2694 24.6077 44.243 24.6339 44.243C24.66 44.1372 24.7123 44.0314 24.7646 43.9521ZM12.4738 32.5537L18.6977 40.8314H6.25L12.4738 32.5537ZM6.25 45.0893L12.4738 53.3669L18.6977 45.0893H6.25Z" fill="url(#paint1_linear)"/>
<path fill-rule="evenodd" clip-rule="evenodd" d="M65.1296 19H73.4618C80.3565 19 86 24.3758 86 31C86 37.6242 80.3831 43 73.4618 43H65.1296C63.9583 43 63 42.0828 63 40.9618V21.0382C63 19.9172 63.9583 19 65.1296 19ZM67.2593 38.8981H73.4618C78.0139 38.8981 81.7407 35.3822 81.7407 31C81.7407 26.6178 78.0139 23.0764 73.4618 23.0764H67.2593V28.9363H74.5C75.6713 28.9363 76.6296 29.8535 76.6296 30.9745C76.6296 32.0955 75.6713 33.0127 74.5 33.0127H67.2593V38.8981Z" fill="url(#paint2_linear)"/>
<path fill-rule="evenodd" clip-rule="evenodd" d="M51 10.7588C51 7.39832 48.5817 4.61092 45.443 4.03782V2.08403C45.443 0.937815 44.5168 0 43.3848 0C42.2528 0 41.3266 0.937815 41.3266 2.08403V3.93361H39.4485V2.08403C39.4485 0.937815 38.5224 0 37.3904 0C36.2584 0 35.3322 0.937815 35.3322 2.08403V3.93361H30.0582C28.9262 3.93361 28 4.87143 28 6.01765C28 7.16387 28.9262 8.10168 30.0582 8.10168H32.1163V22.8983H30.0582C28.9262 22.8983 28 23.8361 28 24.9824C28 26.1286 28.9262 27.0664 30.0582 27.0664H35.3322V28.916C35.3322 30.0622 36.2584 31 37.3904 31C38.5224 31 39.4485 30.0622 39.4485 28.916V27.0664H41.3266V28.916C41.3266 30.0622 42.2528 31 43.3848 31C44.5168 31 45.443 30.0622 45.443 28.916V26.9622C48.6074 26.4151 51 23.6017 51 20.2412C51 18.3916 50.2796 16.7244 49.0962 15.5C50.2796 14.2756 51 12.6084 51 10.7588ZM44.2595 8.12773C45.7002 8.12773 46.8837 9.32605 46.8837 10.7849C46.8837 12.2437 45.7002 13.442 44.2595 13.442H36.2069V8.12773H44.2595ZM36.2069 22.8983H44.2595C45.7002 22.8983 46.8837 21.7261 46.8837 20.2412C46.8837 18.7824 45.7002 17.584 44.2595 17.584H36.2069V22.8983Z" fill="url(#paint3_linear)"/>
<defs>
<linearGradient id="paint0_linear" x1="19.1195" y1="87.987" x2="72.9584" y2="87.987" gradientUnits="userSpaceOnUse">
<stop stop-color="#FFB300"/>
<stop offset="1" stop-color="#FF8E37"/>
</linearGradient>
<linearGradient id="paint1_linear" x1="-0.0584467" y1="59.0082" x2="25.0171" y2="59.0082" gradientUnits="userSpaceOnUse">
<stop stop-color="#5C8BFC"/>
<stop offset="1" stop-color="#84B0FF"/>
</linearGradient>
<linearGradient id="paint2_linear" x1="62.998" y1="42.984" x2="85.9844" y2="42.984" gradientUnits="userSpaceOnUse">
<stop stop-color="#5C8BFC"/>
<stop offset="1" stop-color="#84B0FF"/>
</linearGradient>
<linearGradient id="paint3_linear" x1="27.9738" y1="31.033" x2="51.0003" y2="31.033" gradientUnits="userSpaceOnUse">
<stop stop-color="#5C8BFC"/>
<stop offset="1" stop-color="#84B0FF"/>
</linearGradient>
</defs>
</svg>

<svg width="86" height="88" fill="none" xmlns="http://www.w3.org/2000/svg"><path d="M68.483 57.329c-1.791 0-3.35.99-4.05 2.395l-.442-2.864c0-2.291-1.998-4.166-4.49-4.166-2.467 0-4.492 1.849-4.492 4.166v-2.083c0-2.291-2-4.166-4.492-4.166s-4.49 1.849-4.49 4.166V38.166c0-2.291-2-4.166-4.492-4.166-2.467 0-4.492 1.849-4.492 4.166V70.347c-5.737-2.708-8.333-3.124-11.215-3.124-3.349 0-6.724 1.197-6.724 5.155l10.099 4.192 7.088 6.561C39.666 86.255 44.209 88 48.986 88h15.006c4.958 0 8.982-3.723 8.982-8.306v-18.2c-.026-2.29-2.025-4.165-4.491-4.165z" fill="url(#paint0_linear)"/><path fill-rule="evenodd" clip-rule="evenodd" d="M24.765 43.952c.052-.106.104-.212.13-.29v-.027l.04-.146c.013-.046.026-.092.039-.145v-.053C25 43.185 25 43.079 25 43c0-.08 0-.212-.026-.29v-.054c-.026-.106-.052-.211-.079-.29v-.027c-.013-.053-.032-.1-.052-.146a.956.956 0 01-.052-.145v-.026c-.053-.106-.105-.186-.157-.265 0 0 0-.026-.026-.026L14.174 27.846A2.098 2.098 0 0012.5 27c-.654 0-1.281.317-1.674.846L.392 41.731s0 .026-.026.026l-.032.048c-.048.071-.104.152-.125.217v.026c-.052.08-.078.185-.104.29v.027c-.013.053-.027.1-.04.146a4.402 4.402 0 00-.039.145v.053C0 42.815 0 42.921 0 43c0 .08 0 .212.026.29v.054c.026.106.052.211.079.29v.027c.013.053.032.1.052.146.02.046.04.092.052.145v.026c.053.106.105.186.157.265 0 0 0 .026.026.026l10.434 13.885c.393.529 1.02.846 1.674.846.654 0 1.281-.317 1.674-.846l10.434-13.885s0-.026.026-.026a.98.98 0 01.13-.29zM12.474 32.554l6.224 8.277H6.25l6.224-8.277zM6.25 45.089l6.224 8.278 6.224-8.278H6.25z" fill="url(#paint1_linear)"/><path fill-rule="evenodd" clip-rule="evenodd" d="M65.13 19h8.332C80.356 19 86 24.376 86 31s-5.617 12-12.538 12H65.13c-1.172 0-2.13-.917-2.13-2.038V21.038c0-1.12.958-2.038 2.13-2.038zm2.13 19.898h6.202c4.552 0 8.279-3.516 8.279-7.898s-3.727-7.924-8.28-7.924H67.26v5.86H74.5c1.171 0 2.13.918 2.13 2.038 0 1.122-.959 2.039-2.13 2.039h-7.24v5.885z" fill="url(#paint2_linear)"/><path fill-rule="evenodd" clip-rule="evenodd" d="M51 10.759c0-3.36-2.418-6.148-5.557-6.721V2.084C45.443.938 44.517 0 43.385 0c-1.132 0-2.058.938-2.058 2.084v1.85h-1.878v-1.85C39.449.938 38.522 0 37.39 0c-1.132 0-2.058.938-2.058 2.084v1.85h-5.274C28.926 3.934 28 4.87 28 6.018c0 1.146.926 2.084 2.058 2.084h2.058v14.796h-2.058c-1.132 0-2.058.938-2.058 2.084 0 1.147.926 2.084 2.058 2.084h5.274v1.85c0 1.146.926 2.084 2.058 2.084 1.132 0 2.059-.938 2.059-2.084v-1.85h1.878v1.85c0 1.146.926 2.084 2.058 2.084 1.132 0 2.058-.938 2.058-2.084v-1.954c3.164-.547 5.557-3.36 5.557-6.72 0-1.85-.72-3.518-1.904-4.742A6.784 6.784 0 0051 10.759zm-6.74-2.631c1.44 0 2.624 1.198 2.624 2.657s-1.184 2.657-2.624 2.657h-8.053V8.128h8.053zm-8.053 14.77h8.053a2.635 2.635 0 002.624-2.657c0-1.459-1.184-2.657-2.624-2.657h-8.053v5.314z" fill="url(#paint3_linear)"/><defs><linearGradient id="paint0_linear" x1="19.119" y1="87.987" x2="72.958" y2="87.987" gradientUnits="userSpaceOnUse"><stop stop-color="#FFB300"/><stop offset="1" stop-color="#FF8E37"/></linearGradient><linearGradient id="paint1_linear" x1="-.058" y1="59.008" x2="25.017" y2="59.008" gradientUnits="userSpaceOnUse"><stop stop-color="#5C8BFC"/><stop offset="1" stop-color="#84B0FF"/></linearGradient><linearGradient id="paint2_linear" x1="62.998" y1="42.984" x2="85.984" y2="42.984" gradientUnits="userSpaceOnUse"><stop stop-color="#5C8BFC"/><stop offset="1" stop-color="#84B0FF"/></linearGradient><linearGradient id="paint3_linear" x1="27.974" y1="31.033" x2="51" y2="31.033" gradientUnits="userSpaceOnUse"><stop stop-color="#5C8BFC"/><stop offset="1" stop-color="#84B0FF"/></linearGradient></defs></svg>
